lib/healthicons/icons/outline/devices/ppe_face_mask.svg

<svg fill="none" height="48" viewBox="0 0 48 48" width="48" xmlns="http://www.w3.org/2000/svg"><path clip-rule="evenodd" d="m23.7059 11.0442c.1916-.0589.3966-.0589.5882 0l13 4c.4196.1291.7059.5168.7059.9558v1h1c2.7614 0 5 2.2386 5 5v4c0 2.7614-2.2386 5-5 5h-2.4564c-1.1224 1.7244-2.83 3.0575-4.8968 3.6934l-7.3527 2.2624c-.1916.0589-.3966.0589-.5882 0l-7.3527-2.2624c-2.0668-.6359-3.7744-1.969-4.8968-3.6934h-2.4564c-2.76142 0-5-2.2386-5-5v-4c0-2.7614 2.23858-5 5-5h1v-1c0-.439.2863-.8267.7059-.9558zm-13.7059 7.9558h-1c-1.65685 0-3 1.3431-3 3v4c0 1.6569 1.34315 3 3 3h1.4823c-.3139-.9186-.4823-1.8985-.4823-2.9086zm28 7.0914v-7.0914h1c1.6569 0 3 1.3431 3 3v4c0 1.6569-1.3431 3-3 3h-1.4823c.3139-.9186.4823-1.8985.4823-2.9086zm-26-9.3528v9.3528c0 3.073 2.0043 5.7867 4.9414 6.6905l7.0586 2.1718 7.0586-2.1718c2.9371-.9038 4.9414-3.6175 4.9414-6.6905v-9.3528l-12-3.6923zm6 4.2614v-2h12v2zm0 6h12v-2h-12z" fill="#333" fill-rule="evenodd"/></svg>

<svg width="48" height="48" viewBox="0 0 48 48" fill="none" xmlns="http://www.w3.org/2000/svg">
<path fill-rule="evenodd" clip-rule="evenodd" d="M23.7059 11.0442C23.8975 10.9853 24.1025 10.9853 24.2941 11.0442L37.2941 15.0442C37.7137 15.1733 38 15.561 38 16V17H39C41.7614 17 44 19.2386 44 22V26C44 28.7614 41.7614 31 39 31H36.5436C35.4212 32.7244 33.7136 34.0575 31.6468 34.6934L24.2941 36.9558C24.1025 37.0147 23.8975 37.0147 23.7059 36.9558L16.3532 34.6934C14.2864 34.0575 12.5788 32.7244 11.4564 31H9C6.23858 31 4 28.7614 4 26V22C4 19.2386 6.23858 17 9 17H10V16C10 15.561 10.2863 15.1733 10.7059 15.0442L23.7059 11.0442ZM10 19H9C7.34315 19 6 20.3431 6 22V26C6 27.6569 7.34315 29 9 29H10.4823C10.1684 28.0814 10 27.1015 10 26.0914V19ZM38 26.0914V19H39C40.6569 19 42 20.3431 42 22V26C42 27.6569 40.6569 29 39 29H37.5177C37.8316 28.0814 38 27.1015 38 26.0914ZM12 16.7386V26.0914C12 29.1644 14.0043 31.8781 16.9414 32.7819L24 34.9537L31.0586 32.7819C33.9957 31.8781 36 29.1644 36 26.0914V16.7386L24 13.0463L12 16.7386ZM18 21V19H30V21H18ZM18 27H30V25H18V27Z" fill="#333333"/>
</svg>
